X:1
T:James Gibb editions
T:O Jesu, Light of all below - Barnby
%%score [ ( 1 2 ) ( 3 4 ) ]
L:1/8
Q:1/4=72
M:4/4
K:A
V:1 treble nm="Midi_74"
V:2 treble 
V:3 bass nm="Midi_74"
V:4 bass 
V:1
"^C.M.""^O Jesu, Light of all below""^Joseph Barnby\n(1838-96)""^Bernard of Clairvaux\ntr. Edward Caswall (1814-78)" A2 | %1
 G2 A2 B2 A2 | d2 cB c2 c2 || ^d2 e2 A2 GF | G6 x2 | x6 ||[M:4/4] B2 | e2 c2 d2 c2 | B2 A2 G2 || %9
 B2 | E2 A2 A2 G2 | A6 || A4 A4 |] %13
V:2
 E2 | D2 E2 E2 E2 | F2 E2 E2 x2 || E2 x6 | F2 E2 E2 ^D2 | E6 ||[M:4/4] E2 | E2 E2 D2 E2 | %8
 F2 F2 E2 || E2 | E2 F2 E2 E2 | E6 || F4 E4 |] %13
V:3
 C2 | B,2 A,2 G,2 A,2 | A,2 G,2 A,2 x2 || C2 x6 | B,2 B,2 C2 B,2 | B,6 || %6
[M:4/4]"^1. O Jesu, Light of all below\nThou fount of living fire,\nSurpassing all the joys we know,\nAnd all we can desire!\n\n2. When once Thou visitest the heart,\nThen truth begins to shine,\nThen earthly vanities depart,\nThen kindles love divine." G,2 | %7
 A,2 ^A,2 B,2 =A,2 | D3 C B,2 || %9
"^5. O Jesu, King of earth and heaven,\nOur life and joy! To Thee\nBe honour, thanks and blessing given\nThrough all eternity!" G,2 | %10
"^3. O Jesu Saviour, hear the sighs\nWhich unto Thee we send;\nTo Thee our inmost spirit cries,\nTo Thee our prayers ascend.\n\n4. Abide with us, and let Thy light\nShine, Lord, on every heart;\nDispel the darkness of our night,\nAnd joy to all impart." A,E DC B,C D2 | %11
 C6 || D4 C4 |] %13
V:4
 A,,2 | B,,2 C,2 D,2 C,2 | B,,2 E,2 A,,2 x2 || A,2 x6 | A,2 G,2 F,2 B,,2 | E,6 ||[M:4/4] D,2 | %7
 C,2 F,2 B,,2 C,2 | D,2 D,2 E,2 || D,2 | C,2 D,2 E,2 E,2 | A,,6 || D,4 A,,4 |] %13

